X:14
T:Reel 14
M:4/4
K:Amaj
L:1/8
AB|c>A (3AGF EDCD|EAGB AcBd|cAAG ABcd||ecBG A2:||2ecdB cAA2|cAcA fAed|cAeA dBBd|cABd cABA|GABd cAAd|cABA cAeA|FAEA BcdB|cABG AGFE|DCB,D CA,A,2|CEAE AEFE|CEAE CB,BD|CEAE FDDF|EDCB, CA,A,D|CEAE CEFE|CEAE cdBd|cABG AFED|CDB,C DEFA|
